X: 14669
T: Gan Ainm
R: jig
M: 6/8
K: Edorian
|:BAB EDE|EBB G2A|~F2A DED|AGF G2A:|
|:~B2e e/f/ge|dBA G2A|Bdd d2e|dBA G2A:|

